X:1067
L:1/8
Q:1/8=128
M:4/4
K:A
|: E | C>E A>F E<C A,>B, | C>E A>B c2 c<f | C>E A>F E>C A,>d | c>B A>G F3 E | C>E A>F E<C A,>B, | 
 C>E A>B c2 c<f | C>E A>F E>C A,>d | c>B A>G F3 c | f>g a>g f<c c>^e | f>g a>g f2 f>^e | 
 f>g a>g f<c c>a | g>a b>g f3 c | f>g a>g f<c c>^e | f>g a>g f2 f>^e | a>c d>B c>A ^E<C | 
 c>B A>G F3 :|

